packages/katcn/src/icons/svg/battery-solid.svg

<svg width="24" height="25" viewBox="0 0 24 25" fill="none" xmlns="http://www.w3.org/2000/svg">
<path d="M17.3 5.31201H3.8C2.3 5.31201 1 6.61201 1 8.11201V16.512C1 18.012 2.3 19.312 3.8 19.312H17.3C18.8 19.312 20.1 18.012 20.1 16.512V8.11201C20.1 6.61201 18.9 5.31201 17.3 5.31201Z" fill="black"/>
<path d="M22 9.51201C21.4 9.51201 21 9.91201 21 10.512V14.112C21 14.712 21.4 15.112 22 15.112C22.6 15.112 23 14.712 23 14.112V10.512C23 9.91201 22.6 9.51201 22 9.51201Z" fill="black"/>
<path d="M15.6 9.31201H5.5C4.9 9.31201 4.5 9.71201 4.5 10.312V14.312C4.5 14.912 4.9 15.312 5.5 15.312H15.6C16.2 15.312 16.6 14.912 16.6 14.312V10.312C16.6 9.71201 16.2 9.31201 15.6 9.31201Z" fill="white"/>
</svg>

<svg xmlns="http://www.w3.org/2000/svg" fill="none" viewBox="0 0 24 25"><path fill="#000" d="M17.3 5.312H3.8c-1.5 0-2.8 1.3-2.8 2.8v8.4c0 1.5 1.3 2.8 2.8 2.8h13.5c1.5 0 2.8-1.3 2.8-2.8v-8.4c0-1.5-1.2-2.8-2.8-2.8m4.7 4.2c-.6 0-1 .4-1 1v3.6c0 .6.4 1 1 1s1-.4 1-1v-3.6c0-.6-.4-1-1-1"/><path fill="#fff" d="M15.6 9.312H5.5c-.6 0-1 .4-1 1v4c0 .6.4 1 1 1h10.1c.6 0 1-.4 1-1v-4c0-.6-.4-1-1-1"/></svg>
